src/assets/outline/PercentageCircle.svg

<?xml version="1.0" encoding="UTF-8"?>
<svg width="24" height="24" viewBox="0 0 24 24" xmlns="http://www.w3.org/2000/svg">
 <path d="m8.5698 16.02c-0.19 0-0.37999-0.07-0.52999-0.22-0.29-0.29-0.29-0.77 0-1.06l6.55-6.55c0.29-0.29 0.77-0.29 1.06 0s0.29 0.77 0 1.06l-6.55 6.55c-0.15 0.15-0.34 0.22-0.53 0.22z"/>
 <path d="m8.98 11.11c-1.09 0-1.98-0.89-1.98-1.98 0-1.09 0.89001-1.98 1.98-1.98 1.09 0 1.98 0.89002 1.98 1.98 0 1.09-0.89 1.98-1.98 1.98zm0-2.45c-0.26 0-0.48001 0.21002-0.48001 0.48002s0.21001 0.47998 0.48001 0.47998 0.47998-0.20998 0.47998-0.47998-0.21998-0.48002-0.47998-0.48002z"/>
 <path d="m15.52 16.84c-1.09 0-1.98-0.89-1.98-1.98s0.89-1.98 1.98-1.98 1.98 0.89 1.98 1.98-0.89 1.98-1.98 1.98zm0-2.45c-0.26 0-0.48 0.21-0.48 0.48s0.21 0.48 0.48 0.48 0.48-0.21 0.48-0.48-0.21-0.48-0.48-0.48z"/>
 <path d="m12 22.75c-5.93 0-10.75-4.82-10.75-10.75s4.82-10.75 10.75-10.75 10.75 4.82 10.75 10.75-4.82 10.75-10.75 10.75zm0-20c-5.1 0-9.25 4.15-9.25 9.25s4.15 9.25 9.25 9.25 9.25-4.15 9.25-9.25-4.15-9.25-9.25-9.25z"/>
</svg>

<svg width="24" height="24" viewBox="0 0 24 24"  xmlns="http://www.w3.org/2000/svg">
<path d="M8.56976 16.02C8.37976 16.02 8.18977 15.95 8.03977 15.8C7.74977 15.51 7.74977 15.03 8.03977 14.74L14.5898 8.19003C14.8798 7.90003 15.3598 7.90003 15.6498 8.19003C15.9398 8.48003 15.9398 8.96003 15.6498 9.25003L9.09976 15.8C8.94976 15.95 8.75976 16.02 8.56976 16.02Z" />
<path d="M8.98001 11.11C7.89001 11.11 7 10.22 7 9.13004C7 8.04004 7.89001 7.15002 8.98001 7.15002C10.07 7.15002 10.96 8.04004 10.96 9.13004C10.96 10.22 10.07 11.11 8.98001 11.11ZM8.98001 8.66003C8.72001 8.66003 8.5 8.87005 8.5 9.14005C8.5 9.41005 8.71001 9.62003 8.98001 9.62003C9.25001 9.62003 9.45999 9.41005 9.45999 9.14005C9.45999 8.87005 9.24001 8.66003 8.98001 8.66003Z" />
<path d="M15.52 16.84C14.43 16.84 13.54 15.95 13.54 14.86C13.54 13.77 14.43 12.88 15.52 12.88C16.61 12.88 17.5 13.77 17.5 14.86C17.5 15.95 16.61 16.84 15.52 16.84ZM15.52 14.39C15.26 14.39 15.04 14.6 15.04 14.87C15.04 15.14 15.25 15.35 15.52 15.35C15.79 15.35 16 15.14 16 14.87C16 14.6 15.79 14.39 15.52 14.39Z" />
<path d="M12 22.75C6.07 22.75 1.25 17.93 1.25 12C1.25 6.07 6.07 1.25 12 1.25C17.93 1.25 22.75 6.07 22.75 12C22.75 17.93 17.93 22.75 12 22.75ZM12 2.75C6.9 2.75 2.75 6.9 2.75 12C2.75 17.1 6.9 21.25 12 21.25C17.1 21.25 21.25 17.1 21.25 12C21.25 6.9 17.1 2.75 12 2.75Z" />
</svg>
